dist/assets/svg/fullscreen_exit.svg

<svg xmlns="http://www.w3.org/2000/svg" width="36" height="36" fill="none" viewBox="0 0 36 36"><path fill="#B3B3B3" d="M28.2554 7.74495H35.9764V12.8119H23.1874V0.0229492H28.2544V7.74395L28.2554 7.74495ZM23.1884 35.976V23.1869H35.9774V28.2539H28.2564V35.9749H23.1894L23.1884 35.976ZM7.74544 7.74495V0.0239492H12.8124V12.8129H0.0234375V7.74595H7.74444L7.74544 7.74495ZM0.0244375 28.2549V23.1879H12.8134V35.977H7.74644V28.2559H0.0254375L0.0244375 28.2549Z"/></svg>

<svg xmlns="http://www.w3.org/2000/svg" width="36" height="36" fill="none" viewBox="0 0 36 36"><path fill="#B3B3B3" d="M28.255 7.745h7.721v5.067H23.187V.022h5.067zm-5.067 28.231v-12.79h12.79v5.068h-7.722v7.72H23.19zM7.745 7.745V.024h5.067v12.789H.023V7.746zm-7.72 20.51v-5.067h12.788v12.789H7.746v-7.721z"/></svg>
